svgs/solid/face-melting.svg

<svg xmlns="http://www.w3.org/2000/svg" viewBox="0 0 640 512"><!--! Font Awesome Pro 6.4.2 by @fontawesome - https://fontawesome.com License - https://fontawesome.com/license (Commercial License) Copyright 2023 Fonticons, Inc. --><path d="M571.4 304.8c-4.5 23.2 11.8 47.2 35.4 47.2H608c17.7 0 32 14.3 32 32s-14.3 32-32 32H560c-8.8 0-16 7.2-16 16s7.2 16 16 16h16c17.7 0 32 14.3 32 32s-14.3 32-32 32H320 32c-17.7 0-32-14.3-32-32s14.3-32 32-32H44.9c36.8 0 58.4-50.7 42.9-84.1C72.5 331.1 64 294.5 64 256C64 114.6 178.6 0 320 0S576 114.6 576 256c0 16.7-1.6 33-4.6 48.8zM247.2 219.9a32 32 0 1 0 16.6-61.8 32 32 0 1 0 -16.6 61.8zM441 238.7a32 32 0 1 0 -61.8-16.6A32 32 0 1 0 441 238.7zM213.2 299.4c-3.9-7.9-13.4-11.3-21.4-7.4s-11.3 13.4-7.4 21.4c14.8 30.5 45.1 67.5 98.3 81.7s97.9-2.6 126-21.7c7.3-5 9.2-14.9 4.3-22.2s-14.9-9.2-22.2-4.3c-22.7 15.4-57.9 28.5-99.8 17.2s-65.8-40.2-77.8-64.8z"/></svg>

<svg xmlns="http://www.w3.org/2000/svg" viewBox="0 0 640 512"><!--! Font Awesome Pro 6.1.1 by @fontawesome - https://fontawesome.com License - https://fontawesome.com/license (Commercial License) Copyright 2022 Fonticons, Inc. --><path d="M567.3 322.3C563.4 336.8 573.7 352 588.7 352H608C625.7 352 640 366.3 640 384C640 401.7 625.7 416 608 416H560C551.2 416 544 423.2 544 432C544 440.8 551.2 448 560 448H576C593.7 448 608 462.3 608 480C608 497.7 593.7 512 576 512H325.8C322.1 512.1 318.3 512.1 314.5 512H32C14.33 512 0 497.7 0 480C0 462.3 14.33 448 32 448H44.92C81.76 448 103.4 397.3 87.84 363.9C63.37 311.3 56.54 250.2 72.72 189.7C109.3 53.18 249.7-27.87 386.3 8.723C522.8 45.32 603.9 185.7 567.3 322.3L567.3 322.3zM247.2 219.9C264.3 224.5 281.8 214.4 286.4 197.3C290.1 180.2 280.9 162.7 263.8 158.1C246.7 153.5 229.2 163.7 224.6 180.7C220 197.8 230.2 215.4 247.2 219.9zM418.3 199.5C401.3 194.1 383.7 205.1 379.1 222.2C374.6 239.2 384.7 256.8 401.8 261.3C418.8 265.9 436.4 255.8 440.1 238.7C445.5 221.6 435.4 204.1 418.3 199.5V199.5zM213.2 299.4C209.4 291.4 199.8 288.1 191.8 291.1C183.9 295.8 180.6 305.4 184.4 313.3C199.3 343.9 229.5 380.8 282.7 395.1C335.9 409.4 380.6 392.5 408.7 373.4C416 368.5 417.1 358.5 413 351.2C408 343.9 398.1 341.1 390.8 346.9C368.1 362.3 332.9 375.4 291 364.2C249.1 352.1 225.2 324 213.2 299.4H213.2z"/></svg>
